!!!COM: Palestrina, Giovanni Perluigi da
!!!OPR: Missa Te Deum laudamus
!!!OTL: Agnus
**kern	**kern	**kern	**kern	**kern	**kern
*Ibass	*Itenor	*Itenor	*Icalto	*Icalto	*Icant
!Bassus	!Tenor 2	!Tenor 1	!Altus 2	!Altus 1	!Cantus
*clefF4	*clefGv2	*clefGv2	*clefG2	*clefG2	*clefG2
*k[]	*k[]	*k[]	*k[]	*k[]	*k[]
*A:aeo	*A:aeo	*A:aeo	*A:aeo	*A:aeo	*A:aeo
*M4/2	*M4/2	*M4/2	*M4/2	*M4/2	*M4/2
=1	=1	=1	=1	=1	=1
0r	0r	0r	0r	1e	0r
.	.	.	.	2A	.
.	.	.	.	[2c	.
=2	=2	=2	=2	=2	=2
0r	1e	0r	0r	4c]	1r
.	.	.	.	4B	.
.	.	.	.	4A	.
.	.	.	.	4B	.
.	2A	.	.	4c	1e
.	.	.	.	4d	.
.	[2c	.	.	[2e	.
=3	=3	=3	=3	=3	=3
0r	2c]	1r	0r	2e]	1g
.	2B	.	.	2.d	.
.	2.A	1e	.	.	1a
.	.	.	.	4c	.
.	.	.	.	[2c	.
.	4G	.	.	.	.
=4	=4	=4	=4	=4	=4
0r	1F	2A	0r	2c]	1.a
.	.	1c	.	2A	.
.	1E	.	.	1e	.
.	.	2B	.	.	2g
=5	=5	=5	=5	=5	=5
0r	2c	2A	0r	2f	2a
.	2B	2G	.	1e	2b
.	1A	1F	.	.	2cc
.	.	.	.	2d	4b
.	.	.	.	.	4a
=6	=6	=6	=6	=6	=6
0r	2B	0E	0r	0e	2g
.	2c	.	.	.	1a
.	1B	.	.	.	.
.	.	.	.	.	2g#
=7	=7	=7	=7	=7	=7
1r	1A	2r	0r	2.c	[0a
.	.	2A	.	.	.
.	.	.	.	8d	.
.	.	.	.	8e	.
1A	2r	2D	.	2f	.
.	[2A	[2F	.	2c	.
=8	=8	=8	=8	=8	=8
2D	2A]	4F]	1A	1d	1a]
.	.	4G	.	.	.
1F	2D	1A	.	.	.
.	2A	.	1c	1r	1r
2E	2c	2G	.	.	.
=9	=9	=9	=9	=9	=9
2.D	4B	2.F	1d	0r	0r
.	4A	.	.	.	.
.	1A	.	.	.	.
4C	.	4E	.	.	.
1BB	.	1D	[1d	.	.
.	2G#	.	.	.	.
=10	=10	=10	=10	=10	=10
1AA	2.A	2E	2d]	0r	1ee
.	.	1A	2c	.	.
.	4G	.	.	.	.
1r	2F	.	2d	.	2a
.	2E	2G	2e	.	[2cc
=11	=11	=11	=11	=11	=11
0r	1D	2A	1.f	0r	2cc]
.	.	2B	.	.	2b
.	1C	2.c	.	.	2a
.	.	.	2e	.	2g
.	.	4B	.	.	.
=12	=12	=12	=12	=12	=12
0r	1D	4A	2d	1r	1f
.	.	4G	.	.	.
.	.	1A	2c	.	.
.	1E	.	1B	2r	1e
.	.	2G	.	2e	.
=13	=13	=13	=13	=13	=13
2r	0r	2.c	1A	1e	0r
2A	.	.	.	.	.
.	.	4d	.	.	.
1A	.	1e	2r	2c	.
.	.	.	2e	2A	.
=14	=14	=14	=14	=14	=14
2G	0r	1E	1e	2B	0r
2E	.	.	.	2c	.
2F	.	1r	2d	2.d	.
2G	.	.	2B	.	.
.	.	.	.	4e	.
=15	=15	=15	=15	=15	=15
2.A	0r	0r	2c	2f	2r
.	.	.	2c	1e	2a
4G	.	.	.	.	.
1F	.	.	1A	.	1a
.	.	.	.	2d	.
=16	=16	=16	=16	=16	=16
2E	0r	0r	2B	1e	2g
2A	.	.	2c	.	2e
2F	.	.	2d	2r	2f
2E	.	.	2e	2B	2g
=17	=17	=17	=17	=17	=17
0D	2r	1r	2.f	1d	2.a
.	2d	.	.	.	.
.	.	.	4g	.	4g
.	1d	2r	1a	2.A	1f
.	.	2A	.	.	.
.	.	.	.	4B	.
=18	=18	=18	=18	=18	=18
1AA	2c	1A	1a	4c	1e
.	.	.	.	4d	.
.	2A	.	.	4e	.
.	.	.	.	4c	.
1r	2B	2G	1r	2d	2.g
.	2c	2E	.	[2c	.
.	.	.	.	.	4e
=19	=19	=19	=19	=19	=19
0r	1d	2F	1r	2c]	2a
.	.	2G	.	2B	2g
.	[1c	2.A	2r	1c	2f
.	.	.	2a	.	[2e
.	.	4G	.	.	.
=20	=20	=20	=20	=20	=20
1r	2c]	1F	1a	0r	2e]
.	4B	.	.	.	2d
.	4A	.	.	.	.
2r	1B	4E	[1g	.	2.e
.	.	4F	.	.	.
2E	.	4G	.	.	.
.	.	4A	.	.	4f
=21	=21	=21	=21	=21	=21
1E	1G	1B	2g]	0r	4g
.	.	.	.	.	4a
.	.	.	2e	.	4b
.	.	.	.	.	4cc
2D	2A	2r	2f	.	1dd
2BB	2B	2d	[2g	.	.
=22	=22	=22	=22	=22	=22
2C	1A	2e	2g]	1r	1r
2D	.	2d	2f#	.	.
2E	[1G	2B	[1g	2r	2r
[2C	.	[2c	.	2e	2cc
=23	=23	=23	=23	=23	=23
4C]	1G]	4c]	1g]	1e	1cc
4D	.	4B	.	.	.
4E	.	2.G	.	.	.
4F	.	.	.	.	.
2G	1r	.	2r	2d	2b
.	.	4A	.	.	.
2G	.	2B	2d	2B	2g
=24	=24	=24	=24	=24	=24
2F	0r	2A	1f	2c	2a
2D	.	2d	.	2d	2b
2C	.	1G	2g	2.e	2cc
2G	.	.	2g	.	[2b
.	.	.	.	4d	.
=25	=25	=25	=25	=25	=25
2A	1r	0r	2e	2c	4b]
.	.	.	.	.	4a
2F	.	.	2d	4B	1a
.	.	.	.	4A	.
1E	2r	.	2.e	1B	.
.	[2e	.	.	.	2g#
.	.	.	4d	.	.
=26	=26	=26	=26	=26	=26
1AA	4e]	2r	4c	2A	1a
.	4d	.	4B	.	.
.	1c	1A	2A	1e	.
1r	.	.	1E	.	1r
.	2B	2G#	.	2e	.
=27	=27	=27	=27	=27	=27
0r	2c	2A	0r	2f	0r
.	2d	2B	.	2.g	.
.	2.B	2.G	.	.	.
.	.	.	.	4f	.
.	.	.	.	2d	.
.	4A	4F	.	.	.
=28	=28	=28	=28	=28	=28
0r	2B	2G	0r	2e	2r
.	2c	2A	.	2.f	1a
.	2A	2G	.	.	.
.	.	.	.	4e	.
.	[2c	2E	.	[2e	2g
=29	=29	=29	=29	=29	=29
0r	2c]	2F	1r	2e]	2a
.	2B	2G	.	2d	2b
.	1c	2C	2r	1e	2.g
.	.	[2c	[2e	.	.
.	.	.	.	.	4f
=30	=30	=30	=30	=30	=30
2r	0r	4c]	2e]	0r	2g
.	.	4B	.	.	.
1F	.	4A	2c	.	2.a
.	.	4G	.	.	.
.	.	[1A	2d	.	.
.	.	.	.	.	4g
2C	.	.	[2e	.	2e
=31	=31	=31	=31	=31	=31
1D	2r	1A]	2e]	1r	1f
.	1d	.	2d	.	.
1AA	.	1A	1e	2r	2e
.	2c	.	.	2e	2a
=32	=32	=32	=32	=32	=32
0r	2d	0r	0r	2f	2b
.	2e	.	.	2g	2.cc
.	2.c	.	.	2.e	.
.	.	.	.	.	4b
.	.	.	.	.	2g
.	4B	.	.	4d	.
=33	=33	=33	=33	=33	=33
2r	2c	1r	0r	2e	2a
1D	2.d	.	.	1f	2.b
.	.	2r	.	.	.
.	4c	.	.	.	4a
2C	2A	2E	.	2e	[2a
=34	=34	=34	=34	=34	=34
2D	1B	2F	1r	2d	2a]
2E	.	2.E	.	2B	2g#
2C	[1A	.	2r	4c	1a
.	.	8D	.	4B	.
.	.	8E	.	.	.
[2D	.	[2F	[2d	4A	.
.	.	.	.	4G	.
=35	=35	=35	=35	=35	=35
4D]	1A]	2F]	2d]	4F	1r
4C	.	.	.	4G	.
2AA	.	2E	2c	2.A	.
2BB	1r	1G	2d	.	2r
.	.	.	.	4G	.
2C	.	.	2e	[2G	[2cc
=36	=36	=36	=36	=36	=36
2AA	1r	1A	2c	2G]	2cc]
2D	.	.	4d	2F#	2a
.	.	.	4c	.	.
1GG	1d	1G	4B	2G	1b
.	.	.	4A	.	.
.	.	.	2G	[2g	.
=37	=37	=37	=37	=37	=37
1D	1d	0r	1A	2g]	2a
.	.	.	.	2f#	1dd
1E	2B	.	1G	1g	.
.	2G	.	.	.	2cc
=38	=38	=38	=38	=38	=38
2.D	1A	2r	0r	2f	2.dd
.	.	1d	.	1f	.
4E	.	.	.	.	8cc
.	.	.	.	.	8b
4F	1A	.	.	.	1a
4G	.	.	.	.	.
2A	.	2c	.	2e	.
=39	=39	=39	=39	=39	=39
2G	0r	2d	1g	0r	2b
2E	.	2e	.	.	2.cc
2F	.	2c	2f	.	.
.	.	.	.	.	4a
2D	.	[2d	[2f	.	[2b
=40	=40	=40	=40	=40	=40
1F	1r	4d]	2f]	0r	4b]
.	.	4c	.	.	4a
.	.	2A	2d	.	1a
1E	2r	1B	[1e	.	.
.	2B	.	.	.	2g#
=41	=41	=41	=41	=41	=41
1AA	2c	[0A	2e]	1e	[0a
.	2.A	.	2c	.	.
1D	.	.	2d	2f	.
.	4G	.	.	.	.
.	4F	.	[2f	[2d	.
.	4E	.	.	.	.
=42	=42	=42	=42	=42	=42
1F	2D	0A]	2f]	4d]	0a]
.	.	.	.	4e	.
.	2E	.	1d	1f	.
2D	2.A	.	.	.	.
2C#	.	.	2e	2e	.
.	4G	.	.	.	.
=43	=43	=43	=43	=43	=43
0D	1F	[0A	0f	0d	[0a
.	1D	.	.	.	.
=44	=44	=44	=44	=44	=44
0AA	0E	0A]	0e	0c#	0a]
==	==	==	==	==	==
*-	*-	*-	*-	*-	*-
!!!CDT: 1525/^1526/-1594/2/2
!!!OCY: Italia
!!!AGN: Mass (Paraphrase)
!!!AST: renaissance, vocal
!!!ASW: Hymn
!!!PWK: Masses, Book 9
!!!RNB: Cadence finals: G,E,D
!!!YOR: Le Opere Complete, v. 25, p. 172
!!!YOO: Rome, Italy: Fratelli Scalera
!!!END: 1992//
!!!EED: John Miller
!!!YEC: Copyright 2000, John Miller
!!!YEN: United States of America
!!!YEM: Rights to all derivative electronic formats reserved.
!!!YEM: Refer to licensing agreement for further details.
!!!YEM: This file must be accompanied by the licensing agreement.
!!!YEM: A copy of the licensing agreement may be found at http://www.music-cog.ohio-state.edu/HumdrumDatabases/Palestrina/license.txt
!!!EMD: converted to Humdrum by Bret Aarden
